src/assets/outline/Box2.svg

<?xml version="1.0" encoding="UTF-8"?>
<svg width="24" height="24" viewBox="0 0 24 24" xmlns="http://www.w3.org/2000/svg">
 <path d="m12 22.75c-0.06 0-0.12-0.01-0.17-0.02-0.06-0.01-0.12-0.04-0.18-0.07l-2.21-1.1c-0.37-0.19-0.52001-0.64-0.34001-1.01 0.19-0.37 0.64-0.52 1.01-0.34l1.14 0.57v-1.56c0-0.41 0.34-0.75 0.75-0.75s0.75 0.34 0.75 0.75v1.56l1.14-0.57c0.37-0.18 0.82-0.03 1.01 0.34s0.04 0.82-0.34 1.01l-2.21 1.1c-0.06 0.03-0.12 0.05-0.18 0.07-0.06 0.01-0.11 0.02-0.17 0.02zm6.67-3.33c-0.27 0-0.54-0.15-0.67-0.41-0.19-0.37-0.04-0.82 0.34-1.01l1.81-0.9v-2.31c0-0.41 0.34-0.75 0.75-0.75s0.75 0.34 0.75 0.75v2.78c0 0.28-0.16 0.54-0.41 0.67l-2.22 1.11c-0.13 0.04-0.24 0.07-0.35 0.07zm-13.34 0c-0.11 0-0.23-0.03-0.33-0.08l-2.22-1.11c-0.25-0.13-0.40999-0.39-0.40999-0.67v-2.78c0-0.41 0.34-0.75 0.75-0.75s0.75 0.34 0.75 0.75v2.31l1.81 0.9c0.37 0.19 0.52 0.64 0.34 1.01-0.15 0.26-0.41 0.42-0.69 0.42zm6.67-5c-0.41 0-0.75-0.34-0.75-0.75v-2.31l-1.81-0.9c-0.37-0.19-0.52001-0.64001-0.34001-1.01 0.19-0.37 0.64-0.51999 1.01-0.33999l1.89 0.94 1.89-0.94c0.37-0.18 0.82-0.04001 1.01 0.33999s0.04 0.82001-0.34 1.01l-1.81 0.9v2.31c0 0.41-0.34 0.75-0.75 0.75zm8.89-4.45c-0.41 0-0.75-0.34-0.75-0.75v-1.56l-1.14 0.56999c-0.37 0.19-0.82 0.04001-1.01-0.33999-0.19-0.37-0.04-0.82 0.34-1.01l0.88-0.44-0.88-0.44c-0.37-0.19-0.52-0.64-0.34-1.01 0.19-0.37 0.64-0.52001 1.01-0.34001l2.21 1.1c0.02 0.01 0.05 0.01999 0.07 0.03999 0.06 0.03 0.11 0.08001 0.16 0.13001 0.03 0.04 0.06 0.07999 0.09 0.11999 0.04 0.07 0.07 0.14 0.09 0.22 0.01 0.06 0.02 0.12 0.02 0.17v2.77c0 0.44-0.34 0.77001-0.75 0.77001zm-17.78 0c-0.41 0-0.75-0.34-0.75-0.75v-2.77c0-0.06 0.01-0.11999 0.02-0.16999 0.02-0.08 0.05-0.15 0.09-0.22001 0.03-0.05 0.06-0.09 0.1-0.13s0.09-0.07999 0.14-0.10999c0.02-0.01 0.05-0.03 0.07-0.04l2.21-1.1c0.37-0.18 0.82-0.03999 1.01 0.34001s0.04001 0.82-0.33999 1.01l-0.88001 0.44 0.88001 0.44c0.37 0.19 0.51999 0.64 0.33999 1.01-0.19 0.37-0.63 0.51999-1.01 0.33999l-1.14-0.56999v1.56c0.01 0.39-0.32 0.72-0.74 0.72zm11.11-6.11c-0.11 0-0.23-0.03-0.33-0.08l-1.89-0.94001-1.89 0.94001c-0.37004 0.19-0.82004 0.04-1.01-0.34-0.19-0.37-0.04-0.82001 0.34001-1.01l2.22-1.11c0.21-0.11 0.46-0.11 0.67 0l2.22 1.11c0.37 0.19 0.52 0.64001 0.34 1.01-0.13 0.27-0.39 0.42-0.67 0.42z"/>
</svg>

<svg width="24" height="24" viewBox="0 0 24 24"  xmlns="http://www.w3.org/2000/svg">
<path d="M11.9999 22.7498C11.9399 22.7498 11.8799 22.7398 11.8299 22.7298C11.7699 22.7198 11.7099 22.6898 11.6499 22.6598L9.43987 21.5598C9.06987 21.3698 8.91986 20.9198 9.09986 20.5498C9.28986 20.1798 9.73986 20.0298 10.1099 20.2098L11.2499 20.7798V19.2198C11.2499 18.8098 11.5899 18.4698 11.9999 18.4698C12.4099 18.4698 12.7499 18.8098 12.7499 19.2198V20.7798L13.8899 20.2098C14.2599 20.0298 14.7099 20.1798 14.8999 20.5498C15.0899 20.9198 14.9399 21.3698 14.5599 21.5598L12.3499 22.6598C12.2899 22.6898 12.2299 22.7098 12.1699 22.7298C12.1099 22.7398 12.0599 22.7498 11.9999 22.7498ZM18.6699 19.4198C18.3999 19.4198 18.1299 19.2698 17.9999 19.0098C17.8099 18.6398 17.9599 18.1898 18.3399 17.9998L20.1499 17.0998V14.7898C20.1499 14.3798 20.4899 14.0398 20.8999 14.0398C21.3099 14.0398 21.6499 14.3798 21.6499 14.7898V17.5698C21.6499 17.8498 21.4899 18.1098 21.2399 18.2398L19.0199 19.3498C18.8899 19.3898 18.7799 19.4198 18.6699 19.4198ZM5.32986 19.4198C5.21986 19.4198 5.09986 19.3898 4.99986 19.3398L2.77986 18.2298C2.52986 18.0998 2.36987 17.8398 2.36987 17.5598V14.7798C2.36987 14.3698 2.70987 14.0298 3.11987 14.0298C3.52987 14.0298 3.86987 14.3698 3.86987 14.7798V17.0898L5.67986 17.9898C6.04986 18.1798 6.19986 18.6298 6.01986 18.9998C5.86986 19.2598 5.60986 19.4198 5.32986 19.4198ZM11.9999 14.4198C11.5899 14.4198 11.2499 14.0798 11.2499 13.6698V11.3598L9.43987 10.4598C9.06987 10.2698 8.91986 9.81979 9.09986 9.44979C9.28986 9.07979 9.73986 8.9298 10.1099 9.1098L11.9999 10.0498L13.8899 9.1098C14.2599 8.9298 14.7099 9.06979 14.8999 9.44979C15.0899 9.82979 14.9399 10.2698 14.5599 10.4598L12.7499 11.3598V13.6698C12.7499 14.0798 12.4099 14.4198 11.9999 14.4198ZM20.8899 9.9698C20.4799 9.9698 20.1399 9.6298 20.1399 9.2198V7.6598L18.9999 8.22979C18.6299 8.41979 18.1799 8.2698 17.9899 7.8898C17.7999 7.5198 17.9499 7.0698 18.3299 6.8798L19.2099 6.4398L18.3299 5.9998C17.9599 5.8098 17.8099 5.3598 17.9899 4.9898C18.1799 4.6198 18.6299 4.46979 18.9999 4.64979L21.2099 5.7498C21.2299 5.7598 21.2599 5.76979 21.2799 5.78979C21.3399 5.81979 21.3899 5.8698 21.4399 5.9198C21.4699 5.9598 21.4999 5.99979 21.5299 6.03979C21.5699 6.10979 21.5999 6.17979 21.6199 6.25979C21.6299 6.31979 21.6399 6.37979 21.6399 6.42979V6.4398V9.19979C21.6399 9.63979 21.2999 9.9698 20.8899 9.9698ZM3.10986 9.9698C2.69986 9.9698 2.35986 9.6298 2.35986 9.2198V6.4598V6.44979C2.35986 6.38979 2.36986 6.3298 2.37986 6.2798C2.39986 6.1998 2.42986 6.1298 2.46986 6.05979C2.49986 6.00979 2.52986 5.96979 2.56986 5.92979C2.60986 5.88979 2.65986 5.8498 2.70986 5.8198C2.72986 5.8098 2.75986 5.7898 2.77986 5.7798L4.98986 4.67979C5.35986 4.49979 5.80986 4.6398 5.99986 5.0198C6.18986 5.3998 6.03987 5.8398 5.65987 6.0298L4.77986 6.4698L5.65987 6.9098C6.02987 7.0998 6.17986 7.5498 5.99986 7.9198C5.80986 8.2898 5.36986 8.43979 4.98986 8.25979L3.84986 7.6898V9.2498C3.85986 9.6398 3.52986 9.9698 3.10986 9.9698ZM14.2199 3.8598C14.1099 3.8598 13.9899 3.8298 13.8899 3.7798L11.9999 2.83979L10.1099 3.7798C9.73986 3.9698 9.28986 3.8198 9.09986 3.4398C8.90986 3.0698 9.05986 2.61979 9.43987 2.42979L11.6599 1.3198C11.8699 1.2098 12.1199 1.2098 12.3299 1.3198L14.5499 2.42979C14.9199 2.61979 15.0699 3.0698 14.8899 3.4398C14.7599 3.7098 14.4999 3.8598 14.2199 3.8598Z" />
</svg>
